X: 21824
Q: "Slow."
M: 2/4
L: 1/16
K: Bb
(dc) |\
|: c2 |\
d2c2d2e2 | f4 (e2d2) | c2g2g2^f2 | g2c2 Hc2 Hf/(e/d/c/) |\
(cB).A.G (GF).E.D | F4 F2(GA) | B4 (c2Bc) | d2B2B2 :|


